svg/boy_0105y_outline.svg

<svg width="48" height="48" viewBox="0 0 48 48" fill="none" xmlns="http://www.w3.org/2000/svg">
<path fill-rule="evenodd" clip-rule="evenodd" d="M23.9997 3.99991C23.9537 3.99991 23.9087 4.00711 23.8627 4.00771C23.5287 4.01251 23.1947 4.02881 22.8607 4.05851C15.9858 4.6408 10.6879 10.3148 10.5289 17.1793C10.5269 17.2823 10.5139 17.3823 10.5139 17.4853C10.5139 17.8913 10.5389 18.2903 10.5739 18.6873C11.1829 25.5712 16.9578 30.9722 23.9997 30.9722C31.3156 30.9722 37.2576 25.1402 37.4646 17.8743C37.4686 17.7443 37.4836 17.6173 37.4836 17.4853C37.4836 17.0723 37.4576 16.6634 37.4196 16.2574C37.4106 16.1584 37.3996 16.0604 37.3886 15.9624C37.3426 15.5664 37.2846 15.1734 37.2046 14.7864C37.2036 14.7834 37.2036 14.7804 37.2026 14.7764V14.7744C37.1146 14.3474 37.0026 13.9274 36.8746 13.5134C36.8656 13.4834 36.8546 13.4534 36.8456 13.4234C36.7156 13.0164 36.5686 12.6154 36.4016 12.2244C35.1726 9.33714 32.9556 6.91148 30.0507 5.45259C28.9237 4.9096 28.4817 4.7496 27.0567 4.36671C26.0617 4.13141 25.0447 4.00881 24.0227 4.00341C24.0167 4.00331 24.0057 3.99951 23.9997 3.99951V3.99991ZM23.9977 4.51161C26.6635 4.51395 29.2637 5.3375 31.4448 6.87023C33.6259 8.40295 35.2819 10.5704 36.1876 13.0778C34.1166 10.4778 26.9847 15.5138 26.2747 12.8358C25.4347 9.41214 22.0168 9.36054 21.5428 9.39434C21.6668 9.85464 23.4247 12.3128 22.4648 12.8398C22.5248 10.0578 19.3788 9.73584 19.4688 11.9548C19.5168 13.1368 19.2568 12.1038 18.2108 12.3808C16.5528 12.8198 14.6538 17.4157 12.9729 14.1838C12.4589 13.1898 11.7209 14.1238 11.2559 15.0858C11.8151 12.1147 13.3943 9.43217 15.7207 7.50159C18.0471 5.571 20.9747 4.51356 23.9977 4.51191V4.51161ZM22.3088 9.89634C22.7877 9.85414 25.1197 10.3188 25.7127 12.8398C26.4827 17.0347 35.0476 9.82104 36.6106 14.5098C36.8458 15.4844 36.9673 16.4831 36.9726 17.4857C36.9719 17.5007 36.9713 17.5157 36.9706 17.5307C36.9699 17.5381 36.9692 17.5454 36.9686 17.5527C36.9666 17.6607 36.9526 17.7667 36.9486 17.8747H36.9526C36.8517 21.2448 35.4431 24.4433 33.0249 26.7926C30.6067 29.1418 27.3691 30.4574 23.9977 30.4606C20.7673 30.4573 17.6543 29.2487 15.2678 27.0714C12.8813 24.894 11.3929 21.9045 11.0939 18.6877C11.0529 18.3067 11.0289 17.9207 11.0289 17.5307C11.0899 16.6288 12.1379 13.2168 12.9279 15.1018C14.5629 17.9837 16.7168 13.4828 18.4018 12.9858C19.4428 12.6798 20.7108 14.1728 20.3068 13.2168C18.9068 9.90804 22.5508 10.4768 22.0658 13.7268C23.8287 12.8348 23.5837 12.0698 22.3088 9.89634ZM19.3108 15.9608C18.6118 15.9598 18.0468 16.5258 18.0468 17.2247C18.0458 17.9237 18.6108 18.4887 19.3108 18.4877C20.0088 18.4877 20.5748 17.9227 20.5738 17.2247C20.5738 16.5268 20.0078 15.9618 19.3108 15.9608ZM28.5287 15.9608C27.8307 15.9598 27.2637 16.5258 27.2637 17.2247C27.2627 17.9237 27.8297 18.4887 28.5287 18.4877C29.2277 18.4877 29.7937 17.9227 29.7927 17.2247C29.7917 16.5268 29.2267 15.9618 28.5287 15.9608ZM19.9838 22.7617C19.7758 22.7797 19.5878 22.9837 19.6148 23.3157C19.7858 24.9826 21.7298 26.2726 24.0697 26.2746C26.4127 26.2736 28.3557 24.9836 28.5267 23.3157C27.5407 24.7097 25.9977 25.6196 24.0697 25.6596C22.2048 25.6586 20.6468 24.6417 20.4788 23.3157C20.4218 22.9077 20.1928 22.7417 19.9838 22.7617ZM7.70294 35.3455C6.92785 35.3455 6.33335 35.6025 5.91976 36.1165C5.50946 36.6315 5.30457 37.3855 5.30457 38.3785V39.6885C5.31437 40.6435 5.52506 41.3744 5.93536 41.8864C6.34575 42.3974 6.93765 42.6534 7.71274 42.6534C8.49763 42.6534 9.09272 42.3934 9.49981 41.8724C9.90691 41.3514 10.1108 40.5985 10.1108 39.6145V38.3065C10.1018 37.3515 9.89061 36.6205 9.48031 36.1125C9.06992 35.6015 8.47803 35.3455 7.70294 35.3455ZM23.0817 35.3455C22.3068 35.3455 21.7118 35.6025 21.2988 36.1165C20.8878 36.6315 20.6838 37.3855 20.6838 38.3785V39.6885C20.6928 40.6435 20.9018 41.3744 21.3118 41.8864C21.7228 42.3974 22.3168 42.6534 23.0917 42.6534C23.8767 42.6534 24.4717 42.3934 24.8787 41.8724C25.2857 41.3514 25.4897 40.5985 25.4897 39.6145V38.3065C25.4797 37.3515 25.2697 36.6205 24.8587 36.1125C24.4487 35.6015 23.8567 35.3455 23.0817 35.3455ZM14.3479 35.4335L11.3999 36.4875V37.6365L13.0859 37.1145V42.5564H14.4979V35.4335H14.3479ZM27.0677 35.4425L26.6577 39.0585L27.7807 39.3375L27.9177 39.2105C28.1257 39.0345 28.3987 38.9445 28.7337 38.9445C29.0987 38.9445 29.3787 39.0545 29.5777 39.2695C29.7767 39.4835 29.8767 39.7925 29.8767 40.1965C29.8767 40.6165 29.7897 40.9424 29.6167 41.1734C29.4447 41.4014 29.1997 41.5154 28.8807 41.5154C28.5937 41.5154 28.3607 41.4334 28.1817 41.2704C28.0057 41.1044 27.9017 40.8734 27.8727 40.5775H26.4767C26.4897 40.9814 26.6027 41.3414 26.8137 41.6574C27.0287 41.9734 27.3187 42.2184 27.6877 42.3944C28.0557 42.5664 28.4547 42.6534 28.8847 42.6534C29.3767 42.6534 29.8027 42.5534 30.1637 42.3544C30.5257 42.1534 30.8036 41.8724 30.9956 41.5114C31.1906 41.1464 31.2886 40.7344 31.2886 40.2745C31.2886 39.5195 31.0966 38.9315 30.7126 38.5115C30.3287 38.0915 29.7967 37.8805 29.1187 37.8805C28.7407 37.8805 28.3837 37.9705 28.0487 38.1495L28.2247 36.6205H31.0546V35.4425H27.0677ZM31.7186 35.4425L34.0526 39.9765V42.5564H35.5426V39.9765L37.8786 35.4425H36.2746L34.7966 38.6475L33.3256 35.4425H31.7186ZM7.70294 36.4875C8.04493 36.4875 8.29533 36.6235 8.45493 36.8945C8.61772 37.1615 8.69902 37.5895 8.69902 38.1795V39.8685C8.69252 40.4255 8.61381 40.8385 8.46072 41.1084C8.30772 41.3794 8.05793 41.5154 7.71274 41.5154C7.36424 41.5154 7.11064 41.3754 6.95104 41.0954C6.79465 40.8115 6.71665 40.3795 6.71665 39.8005V38.0715C6.72645 37.5275 6.80835 37.1285 6.96465 36.8745C7.12424 36.6175 7.37074 36.4875 7.70294 36.4875ZM23.0817 36.4875C23.4237 36.4875 23.6737 36.6235 23.8337 36.8945C23.9967 37.1615 24.0777 37.5895 24.0777 38.1795V39.8685C24.0717 40.4255 23.9907 40.8385 23.8377 41.1084C23.6847 41.3794 23.4367 41.5154 23.0917 41.5154C22.7427 41.5154 22.4898 41.3754 22.3298 41.0954C22.1738 40.8115 22.0938 40.3795 22.0938 39.8005V38.0715C22.1038 37.5275 22.1868 37.1285 22.3438 36.8745C22.5028 36.6175 22.7497 36.4875 23.0817 36.4875ZM40.1795 37.1735C39.5505 37.1735 39.0405 37.3305 38.6496 37.6455C38.2626 37.9585 38.0676 38.3485 38.0676 38.8175C38.0676 39.6225 38.6976 40.1575 39.9545 40.4215C40.3325 40.4995 40.6055 40.5875 40.7745 40.6884C40.9475 40.7864 41.0345 40.9224 41.0345 41.0954C41.0345 41.2614 40.9635 41.3974 40.8235 41.5014C40.6865 41.6024 40.4825 41.6514 40.2125 41.6514C39.9225 41.6514 39.6915 41.5864 39.5195 41.4524C39.3465 41.3194 39.2545 41.1254 39.2415 40.8744H37.9016C37.9016 41.1934 37.9996 41.4924 38.1946 41.7694C38.3906 42.0424 38.6595 42.2594 39.0015 42.4194C39.3465 42.5754 39.7405 42.6534 40.1835 42.6534C40.8375 42.6534 41.3735 42.5044 41.7865 42.2084C42.2005 41.9084 42.4055 41.5184 42.4055 41.0364C42.4055 40.3625 42.0345 39.8885 41.2885 39.6145C41.0475 39.5265 40.7495 39.4485 40.3975 39.3805C40.0465 39.3085 39.7955 39.2245 39.6455 39.1305C39.4995 39.0325 39.4275 38.9055 39.4275 38.7495C39.4275 38.5835 39.4925 38.4465 39.6225 38.3395C39.7525 38.2315 39.9355 38.1795 40.1735 38.1795C40.4505 38.1795 40.6545 38.2445 40.7845 38.3785C40.9145 38.5085 40.9795 38.6745 40.9795 38.8765H42.3925C42.3925 38.3715 42.1905 37.9615 41.7865 37.6455C41.3865 37.3305 40.8505 37.1735 40.1795 37.1735ZM16.8668 38.9405V40.0795H19.6168V38.9405H16.8668Z" fill="#333333"/>
</svg>

<?xml version="1.0" encoding="UTF-8" standalone="no"?>
<!-- Created with Inkscape (http://www.inkscape.org/) -->
<svg id="svg8" xmlns:rdf="http://www.w3.org/1999/02/22-rdf-syntax-ns#" xmlns="http://www.w3.org/2000/svg" height="48" viewBox="0 0 12.7 12.7" width="48" version="1.1" xmlns:cc="http://creativecommons.org/ns#" xmlns:dc="http://purl.org/dc/elements/1.1/">
 <title id="title4753">UIO-icon</title>
 <metadata id="metadata5">
  <rdf:RDF>
   <cc:Work rdf:about="">
    <dc:format>image/svg+xml</dc:format>
    <dc:type rdf:resource="http://purl.org/dc/dcmitype/StillImage"/>
    <dc:title>UIO-icon</dc:title>
    <dc:creator>
     <cc:Agent>
      <dc:title>Joaquín Urbano</dc:title>
     </cc:Agent>
    </dc:creator>
    <dc:rights>
     <cc:Agent>
      <dc:title>GPL</dc:title>
     </cc:Agent>
    </dc:rights>
   </cc:Work>
  </rdf:RDF>
 </metadata>
 <path id="path835" d="m24 4c-0.046 0-0.091 0.0072-0.137 0.0078-0.334 0.0048-0.668 0.0211-1.002 0.0508-6.875 0.5823-12.173 6.2564-12.332 13.121-0.002 0.103-0.015 0.203-0.015 0.306 0 0.406 0.025 0.805 0.06 1.202 0.609 6.884 6.384 12.285 13.426 12.285 7.316 0 13.258-5.832 13.465-13.098 0.004-0.13 0.019-0.257 0.019-0.389 0-0.413-0.026-0.822-0.064-1.228-0.009-0.099-0.02-0.197-0.031-0.295-0.046-0.396-0.104-0.789-0.184-1.176-0.001-0.003-0.001-0.006-0.002-0.01v-0.002c-0.088-0.427-0.2-0.847-0.328-1.261-0.009-0.03-0.02-0.06-0.029-0.09-0.13-0.407-0.277-0.808-0.444-1.199-1.229-2.8873-3.446-5.313-6.351-6.7719-1.127-0.543-1.569-0.703-2.994-1.0859-0.995-0.2353-2.012-0.3579-3.034-0.3633-0.006-0.0001-0.017-0.0039-0.023-0.0039zm-0.002 0.5117a12.973 12.974 0 0 1 12.19 8.5663c-2.071-2.6-9.203 2.436-9.913-0.242-0.84-3.4237-4.258-3.4753-4.732-3.4415 0.124 0.4603 1.882 2.9185 0.922 3.4455 0.06-2.782-3.086-3.104-2.996-0.885 0.048 1.182-0.212 0.149-1.258 0.426-1.658 0.439-3.557 5.035-5.238 1.803-0.514-0.994-1.252-0.06-1.717 0.902a12.973 12.974 0 0 1 12.742 -10.574zm-1.689 5.3848c0.479-0.0422 2.811 0.4225 3.404 2.9435 0.77 4.195 9.335-3.0188 10.898 1.67a12.973 12.974 0 0 1 0.362 2.976 12.973 12.974 0 0 1 -0.002 0.045 12.973 12.974 0 0 1 -0.002 0.022c-0.002 0.108-0.016 0.214-0.02 0.322h0.004a12.973 12.974 0 0 1 -12.955 12.586 12.973 12.974 0 0 1 -12.904 -11.773c-0.041-0.381-0.065-0.767-0.065-1.157 0.061-0.902 1.109-4.314 1.899-2.429 1.635 2.882 3.789-1.619 5.474-2.116 1.041-0.306 2.309 1.187 1.905 0.231-1.4-3.3088 2.244-2.74 1.759 0.51 1.763-0.892 1.518-1.657 0.243-3.8305zm-2.998 6.0645c-0.699-0.001-1.264 0.565-1.264 1.264-0.001 0.699 0.564 1.264 1.264 1.263 0.698 0 1.264-0.565 1.263-1.263 0-0.698-0.566-1.263-1.263-1.264zm9.218 0c-0.698-0.001-1.265 0.565-1.265 1.264-0.001 0.699 0.566 1.264 1.265 1.263 0.699 0 1.265-0.565 1.264-1.263s-0.566-1.263-1.264-1.264zm-8.545 6.801c-0.208 0.018-0.396 0.222-0.369 0.554 0.171 1.667 2.115 2.957 4.455 2.959 2.343-0.001 4.286-1.291 4.457-2.959-0.986 1.394-2.529 2.304-4.457 2.344-1.865-0.001-3.423-1.018-3.591-2.344-0.057-0.408-0.286-0.574-0.495-0.554zm-12.281 12.584c-0.7751 0-1.3696 0.257-1.7832 0.771-0.4103 0.515-0.6152 1.269-0.6152 2.262v1.31c0.0098 0.955 0.2205 1.686 0.6308 2.198 0.4104 0.511 1.0023 0.767 1.7774 0.767 0.7849 0 1.38-0.26 1.7871-0.781s0.611-1.274 0.611-2.258v-1.308c-0.009-0.955-0.2202-1.686-0.6305-2.194-0.4104-0.511-1.0023-0.767-1.7774-0.767zm15.379 0c-0.775 0-1.37 0.257-1.783 0.771-0.411 0.515-0.615 1.269-0.615 2.262v1.31c0.009 0.955 0.218 1.686 0.628 2.198 0.411 0.511 1.005 0.767 1.78 0.767 0.785 0 1.38-0.26 1.787-0.781s0.611-1.274 0.611-2.258v-1.308c-0.01-0.955-0.22-1.686-0.631-2.194-0.41-0.511-1.002-0.767-1.777-0.767zm-8.734 0.088l-2.948 1.054v1.149l1.686-0.522v5.442h1.412v-7.123h-0.15zm12.72 0.009l-0.41 3.616 1.123 0.279 0.137-0.127c0.208-0.176 0.481-0.266 0.816-0.266 0.365 0 0.645 0.11 0.844 0.325 0.199 0.214 0.299 0.523 0.299 0.927 0 0.42-0.087 0.746-0.26 0.977-0.172 0.228-0.417 0.342-0.736 0.342-0.287 0-0.52-0.082-0.699-0.245-0.176-0.166-0.28-0.397-0.309-0.693h-1.396c0.013 0.404 0.126 0.764 0.337 1.08 0.215 0.316 0.505 0.561 0.874 0.737 0.368 0.172 0.767 0.259 1.197 0.259 0.492 0 0.918-0.1 1.279-0.299 0.362-0.201 0.64-0.482 0.832-0.843 0.195-0.365 0.293-0.777 0.293-1.237 0-0.755-0.192-1.343-0.576-1.763s-0.916-0.631-1.594-0.631c-0.378 0-0.735 0.09-1.07 0.269l0.176-1.529h2.83v-1.178h-3.987zm4.651 0l2.334 4.534v2.58h1.49v-2.58l2.336-4.534h-1.604l-1.478 3.205-1.471-3.205h-1.607zm-24.016 1.045c0.342 0 0.5924 0.136 0.752 0.407 0.1628 0.267 0.2441 0.695 0.2441 1.285v1.689c-0.0065 0.557-0.0852 0.97-0.2383 1.24-0.153 0.271-0.4028 0.407-0.748 0.407-0.3485 0-0.6021-0.14-0.7617-0.42-0.1564-0.284-0.2344-0.716-0.2344-1.295v-1.729c0.0098-0.544 0.0917-0.943 0.248-1.197 0.1596-0.257 0.4061-0.387 0.7383-0.387zm15.379 0c0.342 0 0.592 0.136 0.752 0.407 0.163 0.267 0.244 0.695 0.244 1.285v1.689c-0.006 0.557-0.087 0.97-0.24 1.24-0.153 0.271-0.401 0.407-0.746 0.407-0.349 0-0.602-0.14-0.762-0.42-0.156-0.284-0.236-0.716-0.236-1.295v-1.729c0.01-0.544 0.093-0.943 0.25-1.197 0.159-0.257 0.406-0.387 0.738-0.387zm17.098 0.686c-0.629 0-1.139 0.157-1.53 0.472-0.387 0.313-0.582 0.703-0.582 1.172 0 0.805 0.63 1.34 1.887 1.604 0.378 0.078 0.651 0.166 0.82 0.267 0.173 0.098 0.26 0.234 0.26 0.407 0 0.166-0.071 0.302-0.211 0.406-0.137 0.101-0.341 0.15-0.611 0.15-0.29 0-0.521-0.065-0.693-0.199-0.173-0.133-0.265-0.327-0.278-0.578h-1.34c0 0.319 0.098 0.618 0.293 0.895 0.196 0.273 0.465 0.49 0.807 0.65 0.345 0.156 0.739 0.234 1.182 0.234 0.654 0 1.19-0.149 1.603-0.445 0.414-0.3 0.619-0.69 0.619-1.172 0-0.674-0.371-1.148-1.117-1.422-0.241-0.088-0.539-0.166-0.891-0.234-0.351-0.072-0.602-0.156-0.752-0.25-0.146-0.098-0.218-0.225-0.218-0.381 0-0.166 0.065-0.303 0.195-0.41 0.13-0.108 0.313-0.16 0.551-0.16 0.277 0 0.481 0.065 0.611 0.199 0.13 0.13 0.195 0.296 0.195 0.498h1.413c0-0.505-0.202-0.915-0.606-1.231-0.4-0.315-0.936-0.472-1.607-0.472zm-23.313 1.767v1.139h2.75v-1.139h-2.75z" fill-rule="evenodd" transform="scale(.26458)" stroke-width=".99999" fill="#333"/>
</svg>
